styles/3/Numix/24/actions/green-add-folders-to-archive.svg

<?xml version="1.0" encoding="UTF-8" standalone="no"?>
<svg
   xmlns:dc="http://purl.org/dc/elements/1.1/"
   xmlns:cc="http://creativecommons.org/ns#"
   xmlns:rdf="http://www.w3.org/1999/02/22-rdf-syntax-ns#"
   xmlns:svg="http://www.w3.org/2000/svg"
   xmlns="http://www.w3.org/2000/svg"
   xmlns:sodipodi="http://sodipodi.sourceforge.net/DTD/sodipodi-0.dtd"
   xmlns:inkscape="http://www.inkscape.org/namespaces/inkscape"
   width="24"
   height="24"
   viewBox="0 0 24 24"
   id="svg2"
   version="1.1"
   inkscape:version="0.91 r"
   sodipodi:docname="green-add-folders-to-archive.svg">
  <metadata
     id="metadata20">
    <rdf:RDF>
      <cc:Work
         rdf:about="">
        <dc:format>image/svg+xml</dc:format>
        <dc:type
           rdf:resource="http://purl.org/dc/dcmitype/StillImage" />
      </cc:Work>
    </rdf:RDF>
  </metadata>
  <defs
     id="defs18" />
  <sodipodi:namedview
     pagecolor="#ffffff"
     bordercolor="#666666"
     borderopacity="1"
     objecttolerance="10"
     gridtolerance="10"
     guidetolerance="10"
     inkscape:pageopacity="0"
     inkscape:pageshadow="2"
     inkscape:window-width="1280"
     inkscape:window-height="998"
     id="namedview16"
     showgrid="true"
     inkscape:zoom="10.727273"
     inkscape:cx="10.713536"
     inkscape:cy="23.900906"
     inkscape:window-x="0"
     inkscape:window-y="0"
     inkscape:window-maximized="1"
     inkscape:current-layer="svg2">
    <inkscape:grid
       type="xygrid"
       id="grid2997"
       empspacing="5"
       visible="true"
       enabled="true"
       snapvisiblegridlinesonly="true" />
  </sodipodi:namedview>
  <rect
     style="fill:#388e3c;fill-opacity:1;stroke:none"
     id="rect3757-7"
     width="16"
     height="5"
     x="2"
     y="10" />
  <path
     style="fill:#388e3c;fill-opacity:1;stroke:none"
     d="M 4,11 C 4,10 4,9 4.909091,9 L 8.090909,9 C 9,9 9,10 9,11 z"
     id="path3759-0"
     inkscape:connector-curvature="0"
     sodipodi:nodetypes="ccccc" />
  <path
     style="fill:#95989f;fill-opacity:1;stroke:none"
     d="m 3,11 14,0 0,3 -14,0 z"
     id="path3765-6"
     inkscape:connector-curvature="0" />
  <rect
     y="11"
     x="5"
     height="5.3684211"
     width="11.000001"
     id="rect3763-7"
     style="fill:#d8d8da;fill-opacity:1;stroke:none" />
  <rect
     style="fill:#f9f9f9;fill-opacity:1;stroke:none"
     id="rect3761-8"
     width="11.999999"
     height="2.684226"
     x="4"
     y="12" />
  <path
     style="fill:#66bb6a;fill-opacity:1;stroke:none"
     d="m 1,13 18,0 -0.9,10.000017 -16.2000001,0 z"
     id="path2987-4"
     inkscape:connector-curvature="0"
     sodipodi:nodetypes="ccccc" />
  <path
     style="fill:#000000;fill-opacity:0.10196079;stroke:none"
     d="M 4.90625 9 C 4.316215 9 4.135177 9.4309062 4.0625 10 L 2 10 L 2 13 L 1 13 L 1.90625 23 L 18.09375 23 L 19 13 L 18 13 L 18 10 L 8.9375 10 C 8.864823 9.4309062 8.683785 9 8.09375 9 L 4.90625 9 z "
     id="rect3038" />
  <rect
     style="fill:#388e3c;fill-opacity:1;stroke:none"
     id="rect3757"
     width="16"
     height="5"
     x="6"
     y="2" />
  <path
     style="fill:#388e3c;fill-opacity:1;stroke:none"
     d="M 8,3 C 8,2.0000001 8,1 8.909091,1 l 3.181818,0 C 13,1 13,2.0000001 13,3 z"
     id="path3759"
     inkscape:connector-curvature="0"
     sodipodi:nodetypes="ccccc" />
  <path
     style="fill:#95989f;fill-opacity:1;stroke:none"
     d="M 7,3 21,3 21,6 7,6 z"
     id="path3765"
     inkscape:connector-curvature="0" />
  <rect
     y="3"
     x="9"
     height="5.3684211"
     width="11.000001"
     id="rect3763"
     style="fill:#d8d8da;fill-opacity:1;stroke:none" />
  <rect
     style="fill:#f9f9f9;fill-opacity:1;stroke:none"
     id="rect3761"
     width="11.999999"
     height="2.684226"
     x="8"
     y="4" />
  <path
     style="fill:#66bb6a;fill-opacity:1;stroke:none"
     d="m 5,5 18,0 -0.9,10.000017 -16.2000001,0 z"
     id="path2987"
     inkscape:connector-curvature="0"
     sodipodi:nodetypes="ccccc" />
  <path
     style="fill:#859900"
     d="m 23.000012,15 -4,0 0,-4 -4,0 0,4 -4,0 0,4 4,0 0,4 4,0 0,-4 4,0 z"
     id="path14"
     inkscape:connector-curvature="0" />
</svg>

<svg xmlns="http://www.w3.org/2000/svg" viewBox="0 0 24 24">
 <rect width="16" height="5" x="2" y="10" style="fill:#388e3c;fill-opacity:1;stroke:none"/>
 <path d="M 4,11 C 4,10 4,9 4.909091,9 L 8.090909,9 C 9,9 9,10 9,11 z" style="fill:#388e3c;fill-opacity:1;stroke:none"/>
 <path d="m 3 11 14 0 0 3 -14 0 z" style="fill:#95989f;fill-opacity:1;stroke:none"/>
 <rect y="11" x="5" height="5.368" width="11" style="fill:#d8d8da;fill-opacity:1;stroke:none"/>
 <rect width="12" height="2.684" x="4" y="12" style="fill:#f9f9f9;fill-opacity:1;stroke:none"/>
 <path d="m 1 13 18 0 -0.9 10 -16.2 0 z" style="fill:#66bb6a;fill-opacity:1;stroke:none"/>
 <path d="m 4.906 9 c -0.59 0 -0.771 0.431 -0.844 1 l -2.063 0 l 0 3 l -1 0 l 0.906 10 l 16.188 0 l 0.906 -10 l -1 0 l 0 -3 l -9.06 0 c -0.073 -0.569 -0.254 -1 -0.844 -1 l -3.188 0 z" style="fill:#000;fill-opacity:0.102;stroke:none"/>
 <rect width="16" height="5" x="6" y="2" style="fill:#388e3c;fill-opacity:1;stroke:none"/>
 <path d="m 8 3 c 0 -1 0 -2 0.909 -2 l 3.182 0 c 0.909 0 0.909 1 0.909 2 z" style="fill:#388e3c;fill-opacity:1;stroke:none"/>
 <path d="M 7,3 21,3 21,6 7,6 z" style="fill:#95989f;fill-opacity:1;stroke:none"/>
 <rect y="3" x="9" height="5.368" width="11" style="fill:#d8d8da;fill-opacity:1;stroke:none"/>
 <rect width="12" height="2.684" x="8" y="4" style="fill:#f9f9f9;fill-opacity:1;stroke:none"/>
 <path d="m 5 5 18 0 -0.9 10 -16.2 0 z" style="fill:#66bb6a;fill-opacity:1;stroke:none"/>
 <path d="m 23 15 -4 0 0 -4 -4 0 0 4 -4 0 0 4 4 0 0 4 4 0 0 -4 4 0 z" style="fill:#859900"/>
</svg>
